X:1
T:Der Abendstern
T:Hoffmann von Fallersleben
T:Robert Schumann
T:Der Abendstern
T:Nach dem Lied No. 1 aus dem Lieder-Album für die Jugend, Op. 79
T:CPDL   —   Creative Commons Attribution Non Commercial 3.0
C:Robert Schumann
Z:August Heinrich Hoffmann von Fallersleben
Z:CPDL   —   Creative Commons Attribution Non Commercial 3.0
%%score [ ( 1 2 ) ( 3 4 ) ]
L:1/8
Q:1/4=48
M:2/4
K:A
V:1 treble nm="Sopran"
V:2 treble 
V:3 treble nm="Alt"
V:4 treble 
V:1
"^Langsam" A | c2!>(! BA!>)! | F3 F |!<(! d2 B^B!<)! |!>(! c2!>)! z c |"^cresc." c2 ^AF | %6
w:   1.  Du|lieb- li- cher|Stern, du|leuch- test so|fern, doch|hab' ich dich|
w:  2.  Wie|lieb' ich doch|dich so|herz- in- nig-|lich! Dein|fun- keln- des|
w:   3.  So|blick' ich nach|dir, sei's|dort o- der|hier; dein|freund- li- ches|
w:   4. Wie|winkst du mir|zu in|fröh- li- cher|Ruh'! O|lieb- li- ches|
 f2 B!f!B | d2!>(! Bc!>)! | !fermata!A2 !fermata!z |] %9
w: den- noch von|Her- zen so|gern.|
w: Äug- lein blickt|im- mer auf|mich.|
w: Äug- lein steht|im- mer vor|mir.|
w: Stern- lein, o|wär ich wie|du!|
V:2
 E | A2 GA | F3 F | B2 FF | G2 x G | ^A2 AF | B2 BB | G2 GG | E2 x |] %9
V:3
 C | E2!>(! EE!>)! | D3 F |!<(! F2 FF!<)! |!>(! ^E2!>)! z E |"^cresc." F2 FF | F2 F!f!F | %7
 E2!>(! EE!>)! | !fermata!C2 !fermata!z |] %9
V:4
 A, | A,2 B,C | D3 D | B,2 DD | C2 x C | F2 =EE | D2 DD | E2 EE | A,2 x |] %9

